X:4
T: Repülj madár...
S: Csíkménság (Csík), 1911
M: 2/4
L: 1/4
Q: "Rubato"
K: F
B/c/d/d/ | {d/}c HB | 
B/c/d/(d/{d/}) | (G{A/}) HF |
d/c/d/{c/}d/ | {g/}f B | 
d/c/c/B/ | G HG | 

